resources/haticons/SVG/hdr_on.svg

<svg height="24" width="24" xmlns="http://www.w3.org/2000/svg"><path d="m12.984 13.5v-3h-1.969v3zm0-4.5q.609 0 1.055.445t.445 1.055v3q0 .609-.445 1.055t-1.055.445h-3.469v-6zm-6.468 2.016v-2.016h1.5v6h-1.5v-2.484h-2.016v2.484h-1.5v-6h1.5v2.016zm12.984.468v-.984h-2.016v.984zm1.5 0q0 .938-.891 1.406l.891 2.109h-1.5l-.891-2.016h-1.125v2.016h-1.5v-6h3.516q.609 0 1.055.445t.445 1.055v.984z"/></svg>

<svg height="24" width="24" xmlns="http://www.w3.org/2000/svg"><path d="M12.984 13.5v-3h-1.969v3zm0-4.5q.609 0 1.055.445t.445 1.055v3q0 .609-.445 1.055T12.984 15H9.515V9zm-6.468 2.016V9h1.5v6h-1.5v-2.484H4.5V15H3V9h1.5v2.016zm12.984.468V10.5h-2.016v.984zm1.5 0q0 .938-.891 1.406L21 14.999h-1.5l-.891-2.016h-1.125v2.016h-1.5v-6H19.5q.609 0 1.055.445T21 10.499v.984z"/></svg>
